X:1
T:D Major, D minor Samuel Babcock, 1793
T:Isaac Watts, 1706 Desiring to Love Christ    88. 88. (L. M.)
T:Admiration
T:Transcribed from The Columbian Harmony, 1793.
%%score [ 1 2 3 4 ]
L:1/8
Q:1/4=150
M:4/4
K:D
V:1 treble nm="Treble" snm="Tr."
V:2 treble nm="Counter" snm="C."
V:3 treble-8 nm="Tenor" snm="T."
V:4 bass nm="Bass" snm="B."
V:1
"^3.  Sure     I    must    love:    or     are               my      ears                                            Still    deaf,              nor      wiil                 my        pas     –     sion""^2.  A   –   gain  he     lives;   and   spreads         his     hands,                                         Hands  that             were   nailed               to         tor     –    turing""^1.  In   –   fi – nite    grace!  Al  – migh     –     ty     charms!                                       Stand   in                 a   –    maze,              ye        whir    –      ling" A4 d2 c2 | %1
[M:3/2] d8 (d2 e2) | (f3 e d4) (e2 d2) | c8 z4 |[K:F] z12 | z4 z4 d4 | (f4 e4) d4 | A8 A4 | %8
 (d3 e f4) (e2 d2) | %9
"^skies;  Je – sus,   the  God,            with   na – ked  arms, Hangs on   a     cross,  Hangs  on   a   cross,     Hangs  on       a    cross      of       love,    and   dies!""^smart;  By these dear wounds,      says   he;   and stands, And  prays to  clasp,    And  prays to clasp,     And   prays   to   clasp      me       to       his   heart.""^move? Then let   me   melt           this  heart  to   tears;  This heart shall yield, This heart shall yield,    This   heart  shall yield      to      death    or    love." ^c8 c4 | %10
 d8 e4 | (f4 c4) d4 | A8 c4 | d8 d4 | d8 B4 | A6 z2 A4 | A8 c4 | d6 z2 d4 | A8 A4 | (d4 c4) A4 | %20
 B8 A4 | A12 |] %22
V:2
 D4 F2 E2 |[M:3/2] F8 (F2 G2) | F8 (E2 F2) | E8 z4 |[K:F] z12 | z12 | %6
 z4 z4"^Stand        in                   a     –    maze,         ye""^Hands        that             were      nailed         to""^Still           deaf,              nor         wiil            my" D4 | %7
 (F4 E4) D4 | (F3 G A4) G4 | %9
"^whirling  skies;   Je  – sus              the   God,  with  na –ked  arms,""^torturing smart;   By    these        dear wounds, says he; and stands,""^passion   move?  Then  let             me   melt  this  heart  to  tears;" E8 E4 | %10
 F8 E4 | (D3 E F4) A4 | F8 E4 | F8 F4 | D12 | z4 z4 E4 | F8 G4 | A6 z2 A4 | (F4 E4) F4 | %19
 (A4 G4) (F2 A2) | G8 E4 | F12 |] %22
V:3
"^1.  In     –   fi –nite   grace!  Al –  migh     –     ty  charms! Stand       in     a  – maze,   ye  whir       –        –        –        –        –        –        –          ling""^2.  A      –  gain  he   lives;   and    spreads        his   hands,  Hands     that were  nailed  to   tor         –        –        –        –        –        –        –       turing""^3.  Sure       I    must  love:    or      are               my   ears     Still        deaf,  nor    wiil     my  pas         –        –        –        –        –        –        –        sion" (D3 E) F2 G2 | %1
[M:3/2] A8 (B2 c2) | d8 (c2 B2) | A8 d4 |[K:F] (f4 e4) d4 | c8 A4 | (d3 c d2 e2 f3 e | %7
 d2 c2 d3 e f3 e | d2 c2 d4) (c2 B2) | %9
"^skies;  Je – sus,   the  God,            with   na – ked  arms, Hangs on   a     cross,  Hangs  on   a   cross,     Hangs  on       a    cross      of       love,    and   dies!""^smart;  By these dear wounds,      says   he;   and stands, And  prays to  clasp,    And  prays to clasp,     And   prays   to   clasp      me       to       his   heart.""^move? Then let   me   melt           this  heart  to   tears;  This heart shall yield, This heart shall yield,    This   heart  shall yield      to      death    or    love." A8 A4 | %10
 F8 G4 | A8 A4 | d8 c4 | A8 A4 | A8 d4 | ^c6 z2 c4 | d8 c4 | A6 z2 A4 | (d4 c4) d4 | (f4 e4) d4 | %20
 d8 ^c4 | d12 |] %22
V:4
 (D,3 C,) B,,2 A,,2 |[M:3/2] D,8 (D,2 C,2) | (B,,3 C, D,4) E,4 | A,,8 z4 | %4
[K:F] z4 z4"^Stand  in        a  – maze,          ye         whir       –        –        –        –     ling""^Hands that  were  nailed         to           tor        –        –        –        –   turing""^Still   deaf,    nor    wiil             my          pas       –        –        –        –    sion" D,4 | %5
 (F,4 E,4) D,4 | (D,4 A,,4) D,4 | (D,2 A,,2 D,2 C,2 D,3 E, | F,3 E, D,4) E,4 | A,,8 A,,4 | %10
 D,8 C,4 | F,8 D,4 | D,8 A,,4 | D,8 D,4 | D,8 D,4 | [A,,A,]6 z2 [A,,A,]4 | D,8 A,,4 | D,6 z2 D,4 | %18
 (D,4 A,,4) D,4 | (D,4 E,4) F,4 | G,8 A,4 | D,12 |] %22

